X: 95
T:Untitled. HA.094
M:6/4
L:1/4
Q:60
C:in Hand C
S:Henry Atkinson's original MS,Hartburn,N'umberland,1694.
O:England
A:Hartburn,Northumberland
H:1/4
Z:vmp.Chris Partington.Jan.2004
K:F
f>ga de2|fc3/4_e/4d B2A|f>ga de2|f3/4A/4c>d =B3/2A/4B/4c:|!
|:g>gga3/2b/ c3/4e/4|f3/4g/4e3/2d/d3|b>bb a>a a3/4d/4|g3/4c/4f>ef3:|]
